X: 1
T: Cleethorpes Coast Light Railway
R: jig
M: 6/8
L: 1/8
K: Dmaj
ABc|:d2d fdc|B2A A2d|dcd efg|g2f f2a|
bag f2a|gfe d2f|gfe dcB|A3ABc:|
|:dcB AGF|E2F D2F|E2F D2F|A2B Add|
dcB AGF|E2F D2F|A2A BAF|E3c3:|